X:1
T:Title
%%score ( 1 2 ) { 3 | 4 }
L:1/8
M:3/4
K:Bb
V:1 treble nm="Grand Piano, Staff 1"
V:2 treble 
V:3 bass nm="Choir Pad, Chimes, CM"
V:4 bass 
V:1
 [B,D]2 [B,D]4 | [DF]2 F2- [EF]2 | [FB]2 [FG]2 [Ec]2 | [EA]2 [DB]4 | [Fc]2 d2 B2 | %5
w: By~Lowell~Mason,~1841 *|||||
 [DG]2 [CF]2 [=EA]2 | [=EG]2 F4 | [DF]2 G2 B2 | [EG]2 [DF]2 [B,D]2 | [DF]2 G2 B2 | [EG]2 [DF]4 | %11
w: ||||||
 [EF]2 F2 B2 | [Fd]2 [FG]2 [Ec]2 | [EA]2 [DB]4- | [DB]4 z2 |] %15
w: ||||
V:2
 x6 | z2 D2 z2 | x6 | x6 | z2 D4 | x6 | x6 | z2 E4 | x6 | z2 E4 | x6 | z2 D4 | x6 | x6 | x6 |] %15
V:3
 F,2 F,4 | B,2 B,2 A,2 | B,2 B,2 C2 | C2 B,4 | A,2 B,2 G,2 | B,2 A,2 D2 | C2 A,4 | B,2 B,2 G,2 | %8
 B,2 B,2 F,2 | B,2 B,4 | C2 D4 | C2 B,4 | B,2[K:bass] B,2 E2 | C2 B,4- | B,4 z2 |] %15
V:4
 B,,2 B,,4 | B,,2 B,,2 C,2 | D,2 E,2 C,2 | F,2 B,,4 | F,2 B,,4 | B,,2 C,4 | C,2 F,4 | B,,2 E,4 | %8
 E,2 B,,4 | B,,2 E,2 G,2 | A,2 B,4 | A,2 z2 z2 | D,2 E,2 C,2 | F,2 B,,4- | B,,4 z2 |] %15

